public/src/images/icons/share.svg

<svg width="17" height="19" viewBox="0 0 17 19" fill="none" xmlns="http://www.w3.org/2000/svg">
<path fill-rule="evenodd" clip-rule="evenodd" d="M13.75 12.8906C14.4948 12.8906 15.125 13.1556 15.6406 13.6855C16.1563 14.2155 16.4141 14.8385 16.4141 15.5547C16.4141 16.2995 16.1491 16.9368 15.6191 17.4668C15.0892 17.9967 14.4661 18.2617 13.75 18.2617C13.0339 18.2617 12.4108 17.9967 11.8809 17.4668C11.3509 16.9368 11.0859 16.2995 11.0859 15.5547C11.0859 15.2682 11.1003 15.0677 11.1289 14.9531L4.64062 11.1719C4.09635 11.6589 3.46615 11.9023 2.75 11.9023C2.0052 11.9023 1.36068 11.6302 0.816406 11.0859C0.272133 10.5417 0 9.89714 0 9.15234C0 8.40755 0.272133 7.76302 0.816406 7.21875C1.36068 6.67448 2.0052 6.40234 2.75 6.40234C3.46615 6.40234 4.09635 6.64583 4.64062 7.13281L11.0859 3.39453C11.0286 3.10807 11 2.89323 11 2.75C11 2.0052 11.2721 1.36068 11.8164 0.816406C12.3607 0.272133 13.0052 0 13.75 0C14.4948 0 15.1393 0.272133 15.6836 0.816406C16.2279 1.36068 16.5 2.0052 16.5 2.75C16.5 3.4948 16.2279 4.13932 15.6836 4.68359C15.1393 5.22787 14.4948 5.5 13.75 5.5C13.0625 5.5 12.4323 5.24219 11.8594 4.72656L5.41406 8.50781C5.47135 8.79427 5.5 9.00911 5.5 9.15234C5.5 9.29557 5.47135 9.51042 5.41406 9.79688L11.9453 13.5781C12.4609 13.1198 13.0625 12.8906 13.75 12.8906Z"/>
</svg>

<svg width="17" height="19" fill="none" xmlns="http://www.w3.org/2000/svg"><path clip-rule="evenodd" d="M13.75 12.89c.745 0 1.375.266 1.89.795.516.53.774 1.153.774 1.87 0 .744-.265 1.382-.795 1.912s-1.153.795-1.869.795-1.34-.265-1.87-.795a2.607 2.607 0 01-.794-1.912c0-.287.014-.487.043-.602L4.64 11.172a2.75 2.75 0 01-1.891.73c-.745 0-1.39-.272-1.934-.816C.272 10.542 0 9.897 0 9.152c0-.744.272-1.389.816-1.933.545-.545 1.19-.817 1.934-.817a2.75 2.75 0 011.89.73l6.446-3.737A3.618 3.618 0 0111 2.75c0-.745.272-1.39.816-1.934C12.361.272 13.006 0 13.75 0c.745 0 1.39.272 1.934.816.544.545.816 1.19.816 1.934 0 .745-.272 1.39-.816 1.934-.545.544-1.19.816-1.934.816-.688 0-1.318-.258-1.89-.773l-6.446 3.78c.057.287.086.502.086.645 0 .144-.029.358-.086.645l6.531 3.781a2.632 2.632 0 011.805-.687z"/></svg>
